exported-svg/aperture.svg

<svg height="24" viewBox="0 0 24 24" width="24" xmlns="http://www.w3.org/2000/svg"><path d="m20.9117617 18.7853386c-1.9149464 2.5586753-4.9699659 4.2146614-8.4117617 4.2146614-.3814296 0-.758109-.0203383-1.1290127-.0599897-.0309165-.0005293-.061947-.0039345-.0926873-.0103241-3.7600431-.4356941-6.91458083-2.8577668-8.38699246-6.1895973-.01423667-.0259582-.02623643-.0533173-.03573986-.0818181-.55052678-1.2751408-.85556768-2.6810827-.85556768-4.1582708 0-2.3123648.74747934-4.45014647 2.01399391-6.18490089.02022766-.03609195.04506264-.06989541.07424441-.1004377 1.91494635-2.55867531 4.96996588-4.21466141 8.41176168-4.21466141.3814296 0 .758109.02033833 1.1290127.05998969.0309165.00052926.061947.00393456.0926873.01032412 3.7600431.43569412 6.9145808 2.85776678 8.3869925 6.1895973.0142366.02595816.0262364.05331732.0357398.08181805.5505268 1.27514083.8555677 2.68108274.8555677 4.15827084 0 2.3123648-.7474793 4.4501465-2.0139939 6.1849009-.0202277.0360919-.0450627.0698954-.0742444.1004377zm-8.6978581 3.2104358c.0950217.0028105.1903938.0042256.2860964.0042256 3.0183961 0 5.7080105-1.4076823 7.4481583-3.6023623l-2.8282287-4.8976645zm-1.0992847-.0960632 2.8294106-4.8997112h-3.7444342c-.0060918.0001114-.0121792.0001111-.0182593 0h-6.05002929c1.39547838 2.589737 3.95795677 4.4576817 6.98331219 4.8997112zm-7.44910762-5.8997112h5.65837742l-1.86937773-3.2372151c-.00502049-.0081449-.00979801-.0164203-.01432937-.0248143l-3.02219821-5.23356272c-.89900823 1.45135616-1.41798339 3.16286752-1.41798339 4.99559212 0 1.2360038.23604337 2.4168768.66551128 3.5zm1.38633037-9.39763768 2.82822877 4.89766448 4.90602598-8.49580116c-.0950217-.0028105-.1903938-.00422564-.2860964-.00422564-3.01839614 0-5.70801045 1.40768231-7.44815835 3.60236232zm8.83353945-3.50207351-2.8294106 4.89971119h3.7444342c.0060918-.0001114.0121792-.00011113.0182593 0h6.0500293c-1.3954784-2.58973698-3.9579568-4.45768172-6.9833122-4.89971119zm7.4491076 5.89971119h-5.6583774l1.8693777 3.2372151c.0050205.008145.0097981.0164204.0143294.0248143l3.0221982 5.2335627c.8990082-1.4513561 1.4179834-3.1628675 1.4179834-4.9955921 0-1.2360038-.2360434-2.4168768-.6655113-3.5zm-4.791938 3.500122-2.0211972-3.500122h-4.0428478l-2.02105638 3.499878 2.02119718 3.500122h4.0428478z"/></svg>

<?xml version="1.0" encoding="UTF-8"?>
<svg width="24px" height="24px" viewBox="0 0 24 24" version="1.1" xmlns="http://www.w3.org/2000/svg" xmlns:xlink="http://www.w3.org/1999/xlink">
    <!-- Generator: Sketch 55.2 (78181) - https://sketchapp.com -->
    <title>aperture</title>
    <desc>Created with Sketch.</desc>
    <g id="aperture" stroke="none" stroke-width="1" fill="none" fill-rule="evenodd">
        <path d="M20.9117617,18.7853386 C18.9968153,21.3440139 15.9417958,23 12.5,23 C12.1185704,23 11.741891,22.9796617 11.3709873,22.9400103 C11.3400708,22.939481 11.3090403,22.9360758 11.2783,22.9296862 C7.5182569,22.4939921 4.36371917,20.0719194 2.89130754,16.7400889 C2.87707087,16.7141307 2.86507111,16.6867716 2.85556768,16.6582708 C2.3050409,15.38313 2,13.9771881 2,12.5 C2,10.1876352 2.74747934,8.04985353 4.01399391,6.31509911 C4.03422157,6.27900716 4.05905655,6.2452037 4.08823832,6.21466141 C6.00318467,3.6559861 9.0582042,2 12.5,2 C12.8814296,2 13.258109,2.02033833 13.6290127,2.05998969 C13.6599292,2.06051895 13.6909597,2.06392425 13.7217,2.07031381 C17.4817431,2.50600793 20.6362808,4.92808059 22.1086925,8.25991111 C22.1229291,8.28586927 22.1349289,8.31322843 22.1444323,8.34172916 C22.6949591,9.61686999 23,11.0228119 23,12.5 C23,14.8123648 22.2525207,16.9501465 20.9860061,18.6849009 C20.9657784,18.7209928 20.9409434,18.7547963 20.9117617,18.7853386 Z M12.2139036,21.9957744 C12.3089253,21.9985849 12.4042974,22 12.5,22 C15.5183961,22 18.2080105,20.5923177 19.9481583,18.3976377 L17.1199296,13.4999732 L12.2139036,21.9957744 Z M11.1146189,21.8997112 L13.9440295,17 L10.1995953,17 C10.1935035,17.0001114 10.1874161,17.0001111 10.181336,17 L4.13130671,17 C5.52678509,19.589737 8.08926348,21.4576817 11.1146189,21.8997112 Z M3.66551128,16 L9.3238887,16 L7.45451097,12.7627849 C7.44949048,12.75464 7.44471296,12.7463646 7.4401816,12.7379706 L4.41798339,7.50440788 C3.51897516,8.95576404 3,10.6672754 3,12.5 C3,13.7360038 3.23604337,14.9168768 3.66551128,16 Z M5.05184165,6.60236232 L7.88007042,11.5000268 L12.7860964,3.00422564 C12.6910747,3.00141514 12.5957026,3 12.5,3 C9.48160386,3 6.79198955,4.40768231 5.05184165,6.60236232 Z M13.8853811,3.10028881 L11.0559705,8 L14.8004047,8 C14.8064965,7.9998886 14.8125839,7.99988887 14.818664,8 L20.8686933,8 C19.4732149,5.41026302 16.9107365,3.54231828 13.8853811,3.10028881 Z M21.3344887,9 L15.6761113,9 L17.545489,12.2372151 C17.5505095,12.2453601 17.5552871,12.2536355 17.5598184,12.2620294 L20.5820166,17.4955921 C21.4810248,16.044236 22,14.3327246 22,12.5 C22,11.2639962 21.7639566,10.0831232 21.3344887,9 Z M16.5425507,12.500122 L14.5213535,9 L10.4785057,9 L8.45744932,12.499878 L10.4786465,16 L14.5214943,16 L16.5425507,12.500122 Z" id="Combined-Shape" fill="#000000" fill-rule="nonzero"></path>
    </g>
</svg>
